assets/W/sm/06_Legging_Text_SM.svg

<svg id="Copy_copy_5" data-name="Copy copy 5" xmlns="http://www.w3.org/2000/svg" width="768" height="229"><defs><style>.cls-2{fill-rule:evenodd}</style></defs><path id="Rectangle_109_copy_3" data-name="Rectangle 109 copy 3" fill="#fff" d="M0 0h768v229H0z"/><path id="DEVON_vegan_SUEDE_LEGGING" data-name="DEVON vegan SUEDE LEGGING" class="cls-2" d="M37.684 67.114h9.292a13.633 13.633 0 1 0 0-27.261h-9.292v27.261zm6.105-5.606v-16.05h3.187a7.693 7.693 0 0 1 7.718 8.025 7.693 7.693 0 0 1-7.718 8.025h-3.187zm23.271 5.606h17.278v-5.837H73.165V56.4h8.87v-5.835h-8.87v-4.877h11.173v-5.836H67.06v27.262zm32.179 0h5.491l11.17-27.262h-6.719l-7.219 18.161-7.255-18.161h-6.643zm32.87.461a14.091 14.091 0 1 0-14.092-14.091 14.126 14.126 0 0 0 14.091 14.09zm0-5.913a8.183 8.183 0 1 1 7.91-8.178 8.088 8.088 0 0 1-7.911 8.177zM177 67.114V39.852h-6.143V56.67l-13.251-16.818h-5.261v27.262h6.1V50.258l13.286 16.856H177zm25.268 0h5.491l11.174-27.261h-6.72l-7.223 18.161-7.257-18.161h-6.642zm21.5 0h17.279v-5.837h-11.174V56.4h8.87v-5.835h-8.87v-4.877h11.174v-5.836h-17.279v27.262zm36.48.461c4.415 0 8.754-1.305 11.173-4.032V50.6h-11.288v5.721h5.337v4.032c-1.152.922-3.149 1.306-5.3 1.306-5.337 0-8.6-3.532-8.6-8.178a8 8 0 0 1 8.217-8.178 9.054 9.054 0 0 1 6.873 2.918l4.3-4.185a14.506 14.506 0 0 0-11.174-4.646 13.926 13.926 0 0 0-14.361 14.091c.001 7.988 6.337 14.093 14.823 14.093zm14.286-.461h6.373l2.419-5.76h11.289l2.419 5.76h6.374l-11.673-27.262h-5.529zm11.02-11.058l3.417-8.217 3.417 8.217h-6.834zm47.269 11.058V39.852h-6.144V56.67l-13.247-16.818h-5.26v27.262h6.1V50.258l13.285 16.856h5.261zm26.189.461c5.759 0 9.714-3.456 9.753-8.409.038-4.108-2.534-6.719-6.489-8.14l-1.92-.691c-2.88-1.037-4.224-1.689-4.224-3.148 0-1.421 1.651-2.073 3.3-2.073a6.064 6.064 0 0 1 4.723 2.265l3.993-4.224a11.374 11.374 0 0 0-8.793-3.763c-5.452 0-9.407 3.11-9.407 8.409 0 3.724 2.458 6.374 6.873 7.871l1.92.653c2.726.922 3.8 1.881 3.8 3.264 0 1.306-1.267 2.265-3.3 2.265a7.132 7.132 0 0 1-5.644-3.11l-4.684 3.956a11.955 11.955 0 0 0 10.099 4.874zm26.8 0c6.528 0 11.212-4.454 11.212-11.25V39.852h-6.105V56.4c0 3.264-2.073 5.26-5.107 5.26s-5.106-2-5.106-5.26V39.852H374.6v16.472c0 6.796 4.649 11.25 11.214 11.25zm18.586-.461h17.279v-5.837h-11.172V56.4h8.87v-5.835h-8.87v-4.877h11.174v-5.836H404.4v27.262zm23.847 0h9.292a13.633 13.633 0 1 0 0-27.261h-9.292v27.261zm6.1-5.606v-16.05h3.187a7.694 7.694 0 0 1 7.718 8.025 7.694 7.694 0 0 1-7.718 8.025h-3.187zm23.271 5.606H474.9v-5.837h-11.172V56.4h8.872v-5.835h-8.869v-4.877H474.9v-5.836h-17.277v27.262zm34.213 0h17.401v-5.837h-11.288V39.852h-6.106v27.262zm23.117 0h17.278v-5.837h-11.166V56.4h8.87v-5.835h-8.87v-4.877h11.173v-5.836h-17.278v27.262zm36.479.461c4.416 0 8.755-1.305 11.174-4.032V50.6h-11.282v5.721h5.337v4.032c-1.152.922-3.149 1.306-5.3 1.306-5.337 0-8.6-3.532-8.6-8.178a8 8 0 0 1 8.217-8.178 9.054 9.054 0 0 1 6.873 2.918l4.3-4.185a14.506 14.506 0 0 0-11.174-4.646 13.925 13.925 0 0 0-14.36 14.091c.001 7.988 6.336 14.093 14.822 14.093zm31.219 0c4.415 0 8.754-1.305 11.173-4.032V50.6h-11.282v5.721h5.338v4.032c-1.152.922-3.149 1.306-5.3 1.306-5.337 0-8.6-3.532-8.6-8.178a8 8 0 0 1 8.217-8.181 9.054 9.054 0 0 1 6.873 2.918l4.3-4.185a14.506 14.506 0 0 0-11.174-4.646 13.926 13.926 0 0 0-14.361 14.091c.001 7.991 6.337 14.096 14.823 14.096zm17.9-.461h6.1V39.852h-6.1v27.262zm38.436 0V39.852h-6.144V56.67l-13.245-16.818h-5.26v27.262h6.105V50.258l13.285 16.856h5.261zm21 .461c4.416 0 8.755-1.305 11.174-4.032V50.6h-11.282v5.721h5.337v4.032c-1.152.922-3.149 1.306-5.3 1.306-5.337 0-8.6-3.532-8.6-8.178a8 8 0 0 1 8.217-8.178 9.052 9.052 0 0 1 6.873 2.918l4.3-4.185a14.506 14.506 0 0 0-11.174-4.646 13.925 13.925 0 0 0-14.36 14.091c.001 7.988 6.335 14.093 14.822 14.093z"/><path id="Rectangle_4_copy_4" data-name="Rectangle 4 copy 4" d="M33.406 135h122.406v3.656H33.406z"/><path id="Shop_now" data-name="Shop now" class="cls-2" d="M38.617 128.079c2.706 0 4.564-1.653 4.582-4.023.018-1.965-1.19-3.214-3.048-3.894l-.9-.33c-1.353-.5-1.984-.808-1.984-1.506 0-.68.776-.992 1.551-.992a2.831 2.831 0 0 1 2.219 1.083l1.876-2.02a5.3 5.3 0 0 0-4.131-1.8c-2.561 0-4.419 1.488-4.419 4.022 0 1.782 1.154 3.049 3.229 3.766l.9.312c1.281.441 1.786.9 1.786 1.561 0 .625-.6 1.084-1.551 1.084a3.335 3.335 0 0 1-2.652-1.488l-2.2 1.892a5.583 5.583 0 0 0 4.742 2.333zm9.726-.221h2.867V122.7h5.159v5.161h2.868v-13.044h-2.868v5.107H51.21v-5.107h-2.868v13.041zm22.657.221a6.742 6.742 0 1 0-6.62-6.741 6.7 6.7 0 0 0 6.62 6.741zm0-2.829a3.917 3.917 0 1 1 3.716-3.912A3.837 3.837 0 0 1 71 125.25zm20.622-5.969a4.4 4.4 0 0 0-4.51-4.464h-4.345v13.041h2.868v-4.132h1.479a4.385 4.385 0 0 0 4.51-4.445zm-2.778 0a1.7 1.7 0 0 1-1.768 1.708h-1.441v-3.416h1.443a1.688 1.688 0 0 1 1.768 1.708zm25.979 8.577v-13.041h-2.886v8.045l-6.223-8.045h-2.472v13.041h2.869V119.8l6.241 8.063h2.471zm11.765.221a6.742 6.742 0 1 0-6.62-6.741 6.7 6.7 0 0 0 6.622 6.741zm0-2.829a3.917 3.917 0 1 1 3.716-3.912 3.837 3.837 0 0 1-3.714 3.912zm21.686 2.608H151l2.976-13.041h-3.067l-1.749 8.266-3.608-8.486-3.589 8.486-1.75-8.266h-3.067l2.959 13.041h2.723l2.724-6.392z"/></svg>

<svg id="Copy_copy_5" data-name="Copy copy 5" xmlns="http://www.w3.org/2000/svg" width="768" height="229" viewBox="0 0 768 229">
  <metadata><?xpacket begin="﻿" id="W5M0MpCehiHzreSzNTczkc9d"?>
<x:xmpmeta xmlns:x="adobe:ns:meta/" x:xmptk="Adobe XMP Core 5.6-c138 79.159824, 2016/09/14-01:09:01        ">
   <rdf:RDF xmlns:rdf="http://www.w3.org/1999/02/22-rdf-syntax-ns#">
      <rdf:Description rdf:about=""/>
   </rdf:RDF>
</x:xmpmeta>
                                                                                                    
                                                                                                    
                                                                                                    
                                                                                                    
                                                                                                    
                                                                                                    
                                                                                                    
                                                                                                    
                                                                                                    
                                                                                                    
                                                                                                    
                                                                                                    
                                                                                                    
                                                                                                    
                                                                                                    
                                                                                                    
                                                                                                    
                                                                                                    
                                                                                                    
                                                                                                    
                           
<?xpacket end="w"?></metadata>
<defs>
    <style>
      .cls-1 {
        fill: #fff;
      }

      .cls-2 {
        fill-rule: evenodd;
      }
    </style>
  </defs>
  <rect id="Rectangle_109_copy_3" data-name="Rectangle 109 copy 3" class="cls-1" width="768" height="229"/>
  <path id="DEVON_vegan_SUEDE_LEGGING" data-name="DEVON vegan SUEDE LEGGING" class="cls-2" d="M37.684,67.114h9.292a13.633,13.633,0,1,0,0-27.261H37.684V67.114Zm6.105-5.606V45.458h3.187a7.693,7.693,0,0,1,7.718,8.025,7.693,7.693,0,0,1-7.718,8.025H43.789ZM67.06,67.114H84.338V61.277H73.165V56.4h8.87V50.565h-8.87V45.688H84.338V39.852H67.06V67.114Zm32.179,0h5.491L115.9,39.852h-6.719l-7.219,18.161L94.707,39.852H88.064Zm32.87,0.461a14.091,14.091,0,1,0-14.092-14.091A14.126,14.126,0,0,0,132.108,67.574Zm0-5.913a8.183,8.183,0,1,1,7.91-8.178A8.088,8.088,0,0,1,132.108,61.661ZM177,67.114V39.852h-6.143V56.67L157.606,39.852h-5.261V67.114h6.1V50.258l13.286,16.856H177Zm25.268,0h5.491l11.174-27.261h-6.72L204.99,58.014l-7.257-18.161h-6.642Zm21.5,0h17.279V61.277H229.873V56.4h8.87V50.565h-8.87V45.688h11.174V39.852H223.768V67.114Zm36.48,0.461c4.415,0,8.754-1.305,11.173-4.032V50.6H260.133v5.721h5.337v4.032c-1.152.922-3.149,1.306-5.3,1.306-5.337,0-8.6-3.532-8.6-8.178a8,8,0,0,1,8.217-8.178,9.054,9.054,0,0,1,6.873,2.918l4.3-4.185a14.506,14.506,0,0,0-11.174-4.646,13.926,13.926,0,0,0-14.361,14.091C245.426,61.469,251.762,67.574,260.248,67.574Zm14.286-.461h6.373l2.419-5.76h11.289l2.419,5.76h6.374L291.735,39.852h-5.529Zm11.02-11.058,3.417-8.217,3.417,8.217h-6.834Zm47.269,11.058V39.852h-6.144V56.67L313.432,39.852h-5.26V67.114h6.1V50.258l13.285,16.856h5.261Zm26.189,0.461c5.759,0,9.714-3.456,9.753-8.409,0.038-4.108-2.534-6.719-6.489-8.14l-1.92-.691c-2.88-1.037-4.224-1.689-4.224-3.148,0-1.421,1.651-2.073,3.3-2.073a6.064,6.064,0,0,1,4.723,2.265l3.993-4.224a11.374,11.374,0,0,0-8.793-3.763c-5.452,0-9.407,3.11-9.407,8.409,0,3.724,2.458,6.374,6.873,7.871l1.92,0.653c2.726,0.922,3.8,1.881,3.8,3.264,0,1.306-1.267,2.265-3.3,2.265a7.132,7.132,0,0,1-5.644-3.11L348.913,62.7A11.955,11.955,0,0,0,359.012,67.574Zm26.8,0c6.528,0,11.212-4.454,11.212-11.25V39.852h-6.105V56.4c0,3.264-2.073,5.26-5.107,5.26s-5.106-2-5.106-5.26V39.852H374.6V56.324C374.6,63.12,379.249,67.574,385.814,67.574Zm18.586-.461h17.279V61.277H410.505V56.4h8.87V50.565h-8.87V45.688h11.174V39.852H404.4V67.114Zm23.847,0h9.292a13.633,13.633,0,1,0,0-27.261h-9.292V67.114Zm6.1-5.606V45.458h3.187a7.694,7.694,0,0,1,7.718,8.025,7.694,7.694,0,0,1-7.718,8.025h-3.187Zm23.271,5.606H474.9V61.277H463.728V56.4H472.6V50.565h-8.869V45.688H474.9V39.852H457.623V67.114Zm34.213,0H509.23V61.277H497.942V39.852h-6.106V67.114Zm23.117,0h17.278V61.277H521.058V56.4h8.87V50.565h-8.87V45.688h11.173V39.852H514.953V67.114Zm36.479,0.461c4.416,0,8.755-1.305,11.174-4.032V50.6H551.317v5.721h5.337v4.032c-1.152.922-3.149,1.306-5.3,1.306-5.337,0-8.6-3.532-8.6-8.178a8,8,0,0,1,8.217-8.178,9.054,9.054,0,0,1,6.873,2.918l4.3-4.185a14.506,14.506,0,0,0-11.174-4.646,13.925,13.925,0,0,0-14.36,14.091C536.611,61.469,542.946,67.574,551.432,67.574Zm31.219,0c4.415,0,8.754-1.305,11.173-4.032V50.6H582.535v5.721h5.338v4.032c-1.152.922-3.149,1.306-5.3,1.306-5.337,0-8.6-3.532-8.6-8.178A8,8,0,0,1,582.19,45.3a9.054,9.054,0,0,1,6.873,2.918l4.3-4.185a14.506,14.506,0,0,0-11.174-4.646,13.926,13.926,0,0,0-14.361,14.091C567.829,61.469,574.165,67.574,582.651,67.574Zm17.9-.461h6.1V39.852h-6.1V67.114Zm38.436,0V39.852h-6.144V56.67L619.591,39.852h-5.26V67.114h6.105V50.258l13.285,16.856h5.261Zm21,0.461c4.416,0,8.755-1.305,11.174-4.032V50.6H659.872v5.721h5.337v4.032c-1.152.922-3.149,1.306-5.3,1.306-5.337,0-8.6-3.532-8.6-8.178a8,8,0,0,1,8.217-8.178,9.052,9.052,0,0,1,6.873,2.918l4.3-4.185a14.506,14.506,0,0,0-11.174-4.646,13.925,13.925,0,0,0-14.36,14.091C645.166,61.469,651.5,67.574,659.987,67.574Z"/>
  <rect id="Rectangle_4_copy_4" data-name="Rectangle 4 copy 4" x="33.406" y="135" width="122.406" height="3.656"/>
  <path id="Shop_now" data-name="Shop now" class="cls-2" d="M38.617,128.079c2.706,0,4.564-1.653,4.582-4.023,0.018-1.965-1.19-3.214-3.048-3.894l-0.9-.33c-1.353-.5-1.984-0.808-1.984-1.506,0-.68.776-0.992,1.551-0.992a2.831,2.831,0,0,1,2.219,1.083l1.876-2.02a5.3,5.3,0,0,0-4.131-1.8c-2.561,0-4.419,1.488-4.419,4.022,0,1.782,1.154,3.049,3.229,3.766l0.9,0.312c1.281,0.441,1.786.9,1.786,1.561,0,0.625-.6,1.084-1.551,1.084a3.335,3.335,0,0,1-2.652-1.488l-2.2,1.892A5.583,5.583,0,0,0,38.617,128.079Zm9.726-.221H51.21V122.7h5.159v5.161h2.868V114.817H56.369v5.107H51.21v-5.107H48.342v13.041ZM71,128.079a6.742,6.742,0,1,0-6.62-6.741A6.7,6.7,0,0,0,71,128.079Zm0-2.829a3.917,3.917,0,1,1,3.716-3.912A3.837,3.837,0,0,1,71,125.25Zm20.622-5.969a4.4,4.4,0,0,0-4.51-4.464H82.767v13.041h2.868v-4.132h1.479A4.385,4.385,0,0,0,91.624,119.281Zm-2.778,0a1.7,1.7,0,0,1-1.768,1.708H85.635v-3.416h1.443A1.688,1.688,0,0,1,88.846,119.281Zm25.979,8.577V114.817h-2.886v8.045l-6.223-8.045h-2.472v13.041h2.869V119.8l6.241,8.063h2.471Zm11.765,0.221a6.742,6.742,0,1,0-6.62-6.741A6.7,6.7,0,0,0,126.59,128.079Zm0-2.829a3.917,3.917,0,1,1,3.716-3.912A3.837,3.837,0,0,1,126.59,125.25Zm21.686,2.608H151l2.976-13.041h-3.067l-1.749,8.266-3.608-8.486-3.589,8.486-1.75-8.266h-3.067l2.959,13.041h2.723l2.724-6.392Z"/>
</svg>
